svg/editor/font_size_fill.svg

<?xml version="1.0" encoding="UTF-8"?>
<svg width="24px" height="24px" viewBox="0 0 24 24" version="1.1" xmlns="http://www.w3.org/2000/svg" xmlns:xlink="http://www.w3.org/1999/xlink">
    <title>font_size_fill</title>
    <g id="页面-1" stroke="none" stroke-width="1" fill="none" fill-rule="evenodd">
        <g id="Editor" transform="translate(-336.000000, -48.000000)">
            <g id="font_size_fill" transform="translate(336.000000, 48.000000)">
                 <path d="M24,0 L24,24 L0,24 L0,0 L24,0 Z M12.5934901,23.257841 L12.5819402,23.2595131 L12.5108777,23.2950439 L12.4918791,23.2987469 L12.4918791,23.2987469 L12.4767152,23.2950439 L12.4056548,23.2595131 C12.3958229,23.2563662 12.3870493,23.2590235 12.3821421,23.2649074 L12.3780323,23.275831 L12.360941,23.7031097 L12.3658947,23.7234994 L12.3769048,23.7357139 L12.4804777,23.8096931 L12.4953491,23.8136134 L12.4953491,23.8136134 L12.5071152,23.8096931 L12.6106902,23.7357139 L12.6232938,23.7196733 L12.6232938,23.7196733 L12.6266527,23.7031097 L12.609561,23.275831 C12.6075724,23.2657013 12.6010112,23.2592993 12.5934901,23.257841 L12.5934901,23.257841 Z M12.8583906,23.1452862 L12.8445485,23.1473072 L12.6598443,23.2396597 L12.6498822,23.2499052 L12.6498822,23.2499052 L12.6471943,23.2611114 L12.6650943,23.6906389 L12.6699349,23.7034178 L12.6699349,23.7034178 L12.678386,23.7104931 L12.8793402,23.8032389 C12.8914285,23.8068999 12.9022333,23.8029875 12.9078286,23.7952264 L12.9118235,23.7811639 L12.8776777,23.1665331 C12.8752882,23.1545897 12.8674102,23.1470016 12.8583906,23.1452862 L12.8583906,23.1452862 Z M12.1430473,23.1473072 C12.1332178,23.1423925 12.1221763,23.1452606 12.1156365,23.1525954 L12.1099173,23.1665331 L12.0757714,23.7811639 C12.0751323,23.7926639 12.0828099,23.8018602 12.0926481,23.8045676 L12.108256,23.8032389 L12.3092106,23.7104931 L12.3186497,23.7024347 L12.3186497,23.7024347 L12.3225043,23.6906389 L12.340401,23.2611114 L12.337245,23.2485176 L12.337245,23.2485176 L12.3277531,23.2396597 L12.1430473,23.1473072 Z" id="MingCute" fill-rule="nonzero"></path>
                <path d="M7.99992,3.5 C8.94946,3.5 9.7904,4.11301 10.081,5.017 L14.428,18.541 C14.6815,19.3297 14.2476,20.1745 13.4589,20.428 C12.6702,20.6815 11.8254,20.2477 11.5719,19.459 L10.2993,15.5 L5.70051,15.5 L4.42796,19.459 C4.17445,20.2477 3.32959,20.6815 2.5409,20.428 C1.75222,20.1745 1.31837,19.3297 1.57187,18.541 L5.91887,5.017 C6.20944,4.11301 7.05038,3.5 7.99992,3.5 Z M20.5,12 C21.3284,12 22,12.6715 22,13.5 L22,18.5 C22,19.3284 21.3284,20 20.5,20 C20.1499,20 19.8278,19.88 19.5726,19.679 C19.0899,19.8856 18.5583,20 18,20 C15.7909,20 14,18.2091 14,16 C14,13.7908 15.7909,12 18,12 C18.5583,12 19.0899,12.1144 19.5726,12.321 C19.8278,12.1199 20.1499,12 20.5,12 Z M18,15 C17.4477,15 17,15.4477 17,16 C17,16.5523 17.4477,17 18,17 C18.5523,17 19,16.5523 19,16 C19,15.4477 18.5523,15 18,15 Z M7.99992,8.34626 L6.66479,12.5 L9.33504,12.5 L7.99992,8.34626 Z" id="形状" fill="#09244B"></path>
            </g>
        </g>
    </g>
</svg>

<svg xmlns="http://www.w3.org/2000/svg" width="24" height="24"><g fill="none" fill-rule="evenodd"><path d="M24 0v24H0V0h24ZM12.593 23.258l-.011.002-.071.035-.02.004-.014-.004-.071-.035c-.01-.004-.019-.001-.024.005l-.004.01-.017.428.005.02.01.013.104.074.015.004.012-.004.104-.074.012-.016.004-.017-.017-.427c-.002-.01-.009-.017-.017-.018Zm.265-.113-.013.002-.185.093-.01.01-.003.011.018.43.005.012.008.007.201.093c.012.004.023 0 .029-.008l.004-.014-.034-.614c-.003-.012-.01-.02-.02-.022Zm-.715.002a.023.023 0 0 0-.027.006l-.006.014-.034.614c0 .012.007.02.017.024l.015-.002.201-.093.01-.008.004-.011.017-.43-.003-.012-.01-.01-.184-.092Z"/><path fill="#09244B" d="M8 3.5c.95 0 1.79.613 2.081 1.517l4.347 13.524a1.5 1.5 0 0 1-2.856.918L10.299 15.5H5.701l-1.273 3.959a1.5 1.5 0 0 1-2.856-.918L5.919 5.017A2.186 2.186 0 0 1 7.999 3.5ZM20.5 12a1.5 1.5 0 0 1 1.5 1.5v5a1.5 1.5 0 0 1-2.427 1.179 4 4 0 1 1 0-7.358c.255-.201.577-.321.927-.321ZM18 15a1 1 0 1 0 0 2 1 1 0 0 0 0-2ZM8 8.346 6.665 12.5h2.67L8 8.346Z"/></g></svg>
